X:1
T:Mrs. Dingwall of Brucklay's Waltz
T:Mrs. Dingwall of Brucklay's Waltz
T:William Christie
C:William Christie
L:1/8
M:3/8
K:C
V:1 treble 
V:1
 G | (ce).g |{e} f{e}f{e}f | (e/f/).g.f.e.d | (c/e/).d/.B/.G/.B/ | (ce).g |{e} f{e}f{e}f | %7
 (e/f/).g/.f/.e/.d/ |{dcB} c2 :: c | Bd/B/d/B/ | c(e/g/)(^f/g/) | (e/<f/) (c/4f3/2) (A/<f/) | %13
 (e/g/).f/.e/.d/.c/ | Bd/B/d/B/ | c(e/g/)(^f/g/) |{e} fd/B/G/B/ |{dcB} c2!fine! :: !fermata!A | %19
 (ce).d | e2 e | (d/f/)e/d/c/e/ | (d/B/)G/B/G/B/ | (ce).e | e2 e | (d/f/).e/.d/.c/.B/ |{B} A2 :| %27
 A | (Aa)a | a2 a |{^f} g{f}g{f}g | g2 g | (Gg).g | g2 g |{e} f{e}f{e}f |{e} f2 e | (ea).a | %37
{e} f{e}f{e}f | (dg).g | e{B}c{B}c | (de).f | (eg).f | (e/f/).e/.d/.c/.B/ |{B} A2!D.C.! || %44

